icons/folder-ansible.svg

<svg xmlns="http://www.w3.org/2000/svg" viewBox="0 0 32 32">
  <path d="M13.84376,7.53645l-1.28749-1.0729A2,2,0,0,0,11.27591,6H4A2,2,0,0,0,2,8V24a2,2,0,0,0,2,2H28a2,2,0,0,0,2-2V10a2,2,0,0,0-2-2H15.12412A2,2,0,0,1,13.84376,7.53645Z" style="fill: #616161"/>
  <g>
    <path d="M31.9995,21a8.99975,8.99975,0,1,1-8.99976-9h.00052A9.043,9.043,0,0,1,32,21v.0005" style="fill: #9e9e9e"/>
    <path d="M27.92861,24.62842l-4-10A1.00051,1.00051,0,0,0,22.9999,14h-.00684a1.00115,1.00115,0,0,0-.92675.64111L17.9999,26h2l1.23975-3.63818L26.44521,25.832a1.00029,1.00029,0,0,0,1.4834-1.20361Zm-5.95312-4.17969L23.018,17.73828l1.85791,4.64356Z" style="fill: #fff"/>
  </g>
</svg>

<svg xmlns="http://www.w3.org/2000/svg" viewBox="0 0 32 32"><path fill="#616161" d="m13.844 7.536-1.288-1.072A2 2 0 0 0 11.276 6H4a2 2 0 0 0-2 2v16a2 2 0 0 0 2 2h24a2 2 0 0 0 2-2V10a2 2 0 0 0-2-2H15.124a2 2 0 0 1-1.28-.464Z"/><path fill="#9e9e9e" d="M32 21a9 9 0 1 1-9-9 9.043 9.043 0 0 1 9 9"/><path fill="#fff" d="m27.929 24.628-4-10a1 1 0 0 0-.93-.628h-.006a1.001 1.001 0 0 0-.927.641L18 26h2l1.24-3.638 5.205 3.47a1 1 0 0 0 1.484-1.204Zm-5.954-4.18 1.043-2.71 1.858 4.644Z"/></svg>
